X:1
T:Aura Lee
M:4/4
L:1/4
K:G
 D G F G| A E A2| G F E F| G4| D G F G| A E A2| G F E F| G4| B3/2 B/2 B2|\
 B3/2 B/2 B2| B A G A| B4| B B c B| A E A3/2 G/2| G F B3/2 A/2| G4|\
